src/assets/touch/logo.svg

<?xml version="1.0" encoding="UTF-8"?>
<svg width="150px" height="22px" viewBox="0 0 150 22" version="1.1" xmlns="http://www.w3.org/2000/svg" xmlns:xlink="http://www.w3.org/1999/xlink">
    <!-- Generator: Sketch 47.1 (45422) - http://www.bohemiancoding.com/sketch -->
    <title>лого</title>
    <desc>Created with Sketch.</desc>
    <defs></defs>
    <g id="Page-1" stroke="none" stroke-width="1" fill="none" fill-rule="evenodd">
        <g id="assets" transform="translate(-31.000000, -29.000000)">
            <g id="лого" transform="translate(31.000000, 29.000000)">
                <path d="M5.544,11.424 L2.616,18 L0.48,18 L3.696,10.968 C2.94399624,10.5839981 2.33600232,10.0200037 1.872,9.276 C1.40799768,8.53199628 1.176,7.5200064 1.176,6.24 C1.176,5.34399552 1.30799868,4.5560034 1.572,3.876 C1.83600132,3.1959966 2.19599772,2.63200224 2.652,2.184 C3.10800228,1.73599776 3.63999696,1.40000112 4.248,1.176 C4.85600304,0.95199888 5.49599664,0.84 6.168,0.84 L8.928,0.84 L8.928,18 L7.08,18 L7.08,11.424 L5.544,11.424 Z M7.08,2.4 L6.096,2.4 C5.72799816,2.4 5.36800176,2.46799932 5.016,2.604 C4.66399824,2.74000068 4.35200136,2.95599852 4.08,3.252 C3.80799864,3.54800148 3.58800084,3.93999756 3.42,4.428 C3.25199916,4.91600244 3.168,5.5199964 3.168,6.24 C3.168,6.92800344 3.24399924,7.50399768 3.396,7.968 C3.54800076,8.43200232 3.75599868,8.80799856 4.02,9.096 C4.28400132,9.38400144 4.5959982,9.5879994 4.956,9.708 C5.3160018,9.8280006 5.695998,9.888 6.096,9.888 L7.08,9.888 L7.08,2.4 Z" id="Яндекс-Переговорки" fill="#FF3029"></path>
                <path d="M27.456,20.376 L25.776,20.376 L25.776,18 L20.592,18 L20.592,20.376 L18.912,20.376 L18.912,16.464 L19.656,16.464 C19.9280014,15.8239968 20.1439992,15.1160039 20.304,14.34 C20.4640008,13.5639961 20.5879996,12.7640041 20.676,11.94 C20.7640004,11.1159959 20.8199999,10.2760043 20.844,9.42 C20.8680001,8.56399572 20.88,7.736004 20.88,6.936 L20.88,5.904 L26.496,5.904 L26.496,16.464 L27.456,16.464 L27.456,20.376 Z M35.592,17.184 C35.2079981,17.4880015 34.7680025,17.7279991 34.272,17.904 C33.7759975,18.0800009 33.224003,18.168 32.616,18.168 C31.3679938,18.168 30.3840036,17.6840048 29.664,16.716 C28.9439964,15.7479952 28.584,14.3280094 28.584,12.456 C28.584,11.4799951 28.6519993,10.5840041 28.788,9.768 C28.9240007,8.95199592 29.1399985,8.244003 29.436,7.644 C29.7320015,7.043997 30.1119977,6.57600168 30.576,6.24 C31.0400023,5.90399832 31.5919968,5.736 32.232,5.736 C32.7280025,5.736 33.1839979,5.835999 33.6,6.036 C34.0160021,6.236001 34.3679986,6.55999776 34.656,7.008 C34.9440014,7.45600224 35.1679992,8.03599644 35.328,8.748 C35.4880008,9.46000356 35.568,10.3279949 35.568,11.352 L35.568,12.384 L30.528,12.384 C30.528,13.7600069 30.7159981,14.7999965 31.092,15.504 C31.4680019,16.2080035 32.0319962,16.56 32.784,16.56 C33.3120026,16.56 33.779998,16.4680009 34.188,16.284 C34.596002,16.0999991 34.9199988,15.9200009 35.16,15.744 L35.592,17.184 Z M17.832,5.904 L17.832,18 L15.984,18 L15.984,12.576 L13.2,12.576 L13.2,18 L11.328,18 L11.328,5.904 L13.2,5.904 L13.2,11.04 L15.984,11.04 L15.984,5.904 L17.832,5.904 Z M39.36,11.976 L39.36,18 L37.488,18 L37.488,5.904 L39.36,5.904 L39.36,11.496 L42.264,5.904 L44.16,5.904 L41.16,11.592 L44.592,18 L42.552,18 L39.36,11.976 Z M48.984,18.168 C47.6879935,18.168 46.6720037,17.6520052 45.936,16.62 C45.1999963,15.5879948 44.832,14.0320104 44.832,11.952 C44.832,11.0079953 44.9239991,10.1520038 45.108,9.384 C45.2920009,8.61599616 45.5639982,7.96400268 45.924,7.428 C46.2840018,6.89199732 46.7319973,6.47600148 47.268,6.18 C47.8040027,5.88399852 48.4239965,5.736 49.128,5.736 C49.6720027,5.736 50.1119983,5.7959994 50.448,5.916 C50.7840017,6.0360006 51.0879986,6.18399912 51.36,6.36 L51.096,8.136 C50.8399987,7.91199888 50.5400017,7.71600084 50.196,7.548 C49.8519983,7.37999916 49.4880019,7.296 49.104,7.296 C48.4319966,7.296 47.8800022,7.67199624 47.448,8.424 C47.0159978,9.17600376 46.8,10.3199923 46.8,11.856 C46.8,13.3760076 46.9799982,14.5479959 47.34,15.372 C47.7000018,16.1960041 48.2639962,16.608 49.032,16.608 C49.4960023,16.608 49.8959983,16.5320008 50.232,16.38 C50.5680017,16.2279992 50.8479989,16.056001 51.072,15.864 L51.504,17.256 C51.1839984,17.5280014 50.824002,17.7479992 50.424,17.916 C50.023998,18.0840008 49.5440028,18.168 48.984,18.168 Z M24.648,7.416 L22.56,7.416 L22.56,7.632 C22.56,8.2720032 22.5480001,8.9719962 22.524,9.732 C22.4999999,10.4920038 22.4480004,11.2639961 22.368,12.048 C22.2879996,12.8320039 22.1760007,13.6039962 22.032,14.364 C21.8879993,15.1240038 21.6880013,15.8239968 21.432,16.464 L24.648,16.464 L24.648,7.416 Z M32.232,7.272 C31.6559971,7.272 31.2480012,7.59599676 31.008,8.244 C30.7679988,8.89200324 30.6160003,9.75999456 30.552,10.848 L33.648,10.848 C33.648,10.3359974 33.6240002,9.8600022 33.576,9.42 C33.5279998,8.9799978 33.4520005,8.6000016 33.348,8.28 C33.2439995,7.9599984 33.1000009,7.71200088 32.916,7.536 C32.7319991,7.35999912 32.5040014,7.272 32.232,7.272 Z M63.576,1.824 L58.464,1.824 L58.464,18 L57.264,18 L57.264,0.84 L64.776,0.84 L64.776,18 L63.576,18 L63.576,1.824 Z M67.968,12.144 C68.0000002,13.8080083 68.2319978,15.0759956 68.664,15.948 C69.0960022,16.8200044 69.7519956,17.256 70.632,17.256 C71.032002,17.256 71.3839985,17.1920006 71.688,17.064 C71.9920015,16.9359994 72.247999,16.7840009 72.456,16.608 C72.6960012,16.4319991 72.9039991,16.2160013 73.08,15.96 L73.44,16.872 C73.247999,17.1440014 73.0160014,17.375999 72.744,17.568 C72.5039988,17.7440009 72.2080018,17.8999993 71.856,18.036 C71.5039982,18.1720007 71.0880024,18.24 70.608,18.24 C69.3279936,18.24 68.384003,17.6880055 67.776,16.584 C67.167997,15.4799945 66.864,13.9360099 66.864,11.952 C66.864,10.959995 66.9519991,10.0760039 67.128,9.3 C67.3040009,8.52399612 67.5479984,7.86400272 67.86,7.32 C68.1720016,6.77599728 68.5439978,6.3640014 68.976,6.084 C69.4080022,5.8039986 69.8799974,5.664 70.392,5.664 C70.9200026,5.664 71.3919979,5.79999864 71.808,6.072 C72.2240021,6.34400136 72.5679986,6.75199728 72.84,7.296 C73.1120014,7.84000272 73.3039994,8.51599596 73.416,9.324 C73.5280006,10.132004 73.5360005,11.0719946 73.44,12.144 L67.968,12.144 Z M70.392,6.6 C69.7519968,6.6 69.2040023,6.99599604 68.748,7.788 C68.2919977,8.58000396 68.0400002,9.7359924 67.992,11.256 L72.384,11.256 C72.4800005,9.63999192 72.324002,8.46000372 71.916,7.716 C71.507998,6.97199628 71.000003,6.6 70.392,6.6 Z M78.936,17.328 C79.7040038,17.328 80.3199977,16.8680046 80.784,15.948 C81.2480023,15.0279954 81.48,13.6080096 81.48,11.688 C81.48,10.087992 81.280002,8.8480044 80.88,7.968 C80.479998,7.0879956 79.9280035,6.648 79.224,6.648 C78.9519986,6.648 78.6920012,6.71599932 78.444,6.852 C78.1959988,6.98800068 77.9640011,7.16799888 77.748,7.392 C77.5319989,7.61600112 77.3360009,7.87599852 77.16,8.172 C76.9839991,8.46800148 76.8320006,8.7759984 76.704,9.096 L76.704,15.864 C76.9440012,16.3600025 77.2399982,16.7279988 77.592,16.968 C77.9440018,17.2080012 78.3919973,17.328 78.936,17.328 Z M78.864,18.216 C78.3999977,18.216 77.9800019,18.116001 77.604,17.916 C77.2279981,17.715999 76.9280011,17.4640015 76.704,17.16 L76.704,21.744 L75.576,21.744 L75.576,5.904 L76.56,5.904 L76.656,7.896 C76.9280014,7.31999712 77.2879978,6.80400228 77.736,6.348 C78.1840022,5.89199772 78.7439966,5.664 79.416,5.664 C79.9120025,5.664 80.359998,5.80799856 80.76,6.096 C81.160002,6.38400144 81.4959986,6.7879974 81.768,7.308 C82.0400014,7.8280026 82.2479993,8.45199636 82.392,9.18 C82.5360007,9.90800364 82.608,10.7119956 82.608,11.592 C82.608,13.8160111 82.2640034,15.4759945 81.576,16.572 C80.8879966,17.6680055 79.9840056,18.216 78.864,18.216 Z M85.248,12.144 C85.2800002,13.8080083 85.5119978,15.0759956 85.944,15.948 C86.3760022,16.8200044 87.0319956,17.256 87.912,17.256 C88.312002,17.256 88.6639985,17.1920006 88.968,17.064 C89.2720015,16.9359994 89.527999,16.7840009 89.736,16.608 C89.9760012,16.4319991 90.1839991,16.2160013 90.36,15.96 L90.72,16.872 C90.527999,17.1440014 90.2960014,17.375999 90.024,17.568 C89.7839988,17.7440009 89.4880018,17.8999993 89.136,18.036 C88.7839982,18.1720007 88.3680024,18.24 87.888,18.24 C86.6079936,18.24 85.664003,17.6880055 85.056,16.584 C84.447997,15.4799945 84.144,13.9360099 84.144,11.952 C84.144,10.959995 84.2319991,10.0760039 84.408,9.3 C84.5840009,8.52399612 84.8279984,7.86400272 85.14,7.32 C85.4520016,6.77599728 85.8239978,6.3640014 86.256,6.084 C86.6880022,5.8039986 87.1599974,5.664 87.672,5.664 C88.2000026,5.664 88.6719979,5.79999864 89.088,6.072 C89.5040021,6.34400136 89.8479986,6.75199728 90.12,7.296 C90.3920014,7.84000272 90.5839994,8.51599596 90.696,9.324 C90.8080006,10.132004 90.8160005,11.0719946 90.72,12.144 L85.248,12.144 Z M87.672,6.6 C87.0319968,6.6 86.4840023,6.99599604 86.028,7.788 C85.5719977,8.58000396 85.3200002,9.7359924 85.272,11.256 L89.664,11.256 C89.7600005,9.63999192 89.604002,8.46000372 89.196,7.716 C88.787998,6.97199628 88.280003,6.6 87.672,6.6 Z M93.96,6.84 L93.96,18 L92.856,18 L92.856,5.904 L97.968,5.904 L97.968,6.84 L93.96,6.84 Z M102.624,18.24 C102.095997,18.24 101.608002,18.1080013 101.16,17.844 C100.711998,17.5799987 100.324002,17.1920026 99.996,16.68 C99.6679984,16.1679974 99.408001,15.5240039 99.216,14.748 C99.023999,13.9719961 98.928,13.0640052 98.928,12.024 C98.928,11.015995 99.023999,10.116004 99.216,9.324 C99.408001,8.53199604 99.6679984,7.86800268 99.996,7.332 C100.324002,6.79599732 100.711998,6.38400144 101.16,6.096 C101.608002,5.80799856 102.095997,5.664 102.624,5.664 C103.152003,5.664 103.639998,5.79199872 104.088,6.048 C104.536002,6.30400128 104.923998,6.6919974 105.252,7.212 C105.580002,7.7320026 105.839999,8.37999612 106.032,9.156 C106.224001,9.93200388 106.32,10.8399948 106.32,11.88 C106.32,12.888005 106.224001,13.7839961 106.032,14.568 C105.839999,15.3520039 105.580002,16.0159973 105.252,16.56 C104.923998,17.1040027 104.536002,17.5199986 104.088,17.808 C103.639998,18.0960014 103.152003,18.24 102.624,18.24 Z M102.624,17.328 C103.328004,17.328 103.931997,16.8880044 104.436,16.008 C104.940003,15.1279956 105.192,13.7760091 105.192,11.952 C105.192,11.0079953 105.124001,10.1960034 104.988,9.516 C104.851999,8.8359966 104.668001,8.28000216 104.436,7.848 C104.203999,7.41599784 103.932002,7.100001 103.62,6.9 C103.307998,6.699999 102.976002,6.6 102.624,6.6 C101.919996,6.6 101.316003,7.03199568 100.812,7.896 C100.307997,8.76000432 100.056,10.1119908 100.056,11.952 C100.056,12.8960047 100.123999,13.7079966 100.26,14.388 C100.396001,15.0680034 100.579999,15.6239978 100.812,16.056 C101.044001,16.4880022 101.315998,16.807999 101.628,17.016 C101.940002,17.224001 102.271998,17.328 102.624,17.328 Z M108.384,18 L108.384,5.904 L110.928,5.904 C112.000005,5.904 112.815997,6.15199752 113.376,6.648 C113.936003,7.14400248 114.216,7.8719952 114.216,8.832 C114.216,9.44000304 114.080001,9.9839976 113.808,10.464 C113.535999,10.9440024 113.104003,11.3199986 112.512,11.592 C113.296004,11.8160011 113.867998,12.1759975 114.228,12.672 C114.588002,13.1680025 114.768,13.7839963 114.768,14.52 C114.768,15.720006 114.424003,16.5999972 113.736,17.16 C113.047997,17.7200028 112.128006,18 110.976,18 L108.384,18 Z M109.488,6.792 L109.488,11.28 L110.88,11.28 C111.552003,11.28 112.095998,11.0920019 112.512,10.716 C112.928002,10.3399981 113.136,9.72800424 113.136,8.88 C113.136,8.11199616 112.936002,7.57200156 112.536,7.26 C112.135998,6.94799844 111.584004,6.792 110.88,6.792 L109.488,6.792 Z M109.488,12.12 L109.488,17.136 L110.976,17.136 C111.760004,17.136 112.399998,16.9480019 112.896,16.572 C113.392002,16.1959981 113.64,15.5360047 113.64,14.592 C113.64,13.7119956 113.412002,13.0800019 112.956,12.696 C112.499998,12.3119981 111.832004,12.12 110.952,12.12 L109.488,12.12 Z M119.856,18.24 C119.327997,18.24 118.840002,18.1080013 118.392,17.844 C117.943998,17.5799987 117.556002,17.1920026 117.228,16.68 C116.899998,16.1679974 116.640001,15.5240039 116.448,14.748 C116.255999,13.9719961 116.16,13.0640052 116.16,12.024 C116.16,11.015995 116.255999,10.116004 116.448,9.324 C116.640001,8.53199604 116.899998,7.86800268 117.228,7.332 C117.556002,6.79599732 117.943998,6.38400144 118.392,6.096 C118.840002,5.80799856 119.327997,5.664 119.856,5.664 C120.384003,5.664 120.871998,5.79199872 121.32,6.048 C121.768002,6.30400128 122.155998,6.6919974 122.484,7.212 C122.812002,7.7320026 123.071999,8.37999612 123.264,9.156 C123.456001,9.93200388 123.552,10.8399948 123.552,11.88 C123.552,12.888005 123.456001,13.7839961 123.264,14.568 C123.071999,15.3520039 122.812002,16.0159973 122.484,16.56 C122.155998,17.1040027 121.768002,17.5199986 121.32,17.808 C120.871998,18.0960014 120.384003,18.24 119.856,18.24 Z M119.856,17.328 C120.560004,17.328 121.163997,16.8880044 121.668,16.008 C122.172003,15.1279956 122.424,13.7760091 122.424,11.952 C122.424,11.0079953 122.356001,10.1960034 122.22,9.516 C122.083999,8.8359966 121.900001,8.28000216 121.668,7.848 C121.435999,7.41599784 121.164002,7.100001 120.852,6.9 C120.539998,6.699999 120.208002,6.6 119.856,6.6 C119.151996,6.6 118.548003,7.03199568 118.044,7.896 C117.539997,8.76000432 117.288,10.1119908 117.288,11.952 C117.288,12.8960047 117.355999,13.7079966 117.492,14.388 C117.628001,15.0680034 117.811999,15.6239978 118.044,16.056 C118.276001,16.4880022 118.547998,16.807999 118.86,17.016 C119.172002,17.224001 119.503998,17.328 119.856,17.328 Z M128.976,17.328 C129.744004,17.328 130.359998,16.8680046 130.824,15.948 C131.288002,15.0279954 131.52,13.6080096 131.52,11.688 C131.52,10.087992 131.320002,8.8480044 130.92,7.968 C130.519998,7.0879956 129.968004,6.648 129.264,6.648 C128.991999,6.648 128.732001,6.71599932 128.484,6.852 C128.235999,6.98800068 128.004001,7.16799888 127.788,7.392 C127.571999,7.61600112 127.376001,7.87599852 127.2,8.172 C127.023999,8.46800148 126.872001,8.7759984 126.744,9.096 L126.744,15.864 C126.984001,16.3600025 127.279998,16.7279988 127.632,16.968 C127.984002,17.2080012 128.431997,17.328 128.976,17.328 Z M128.904,18.216 C128.439998,18.216 128.020002,18.116001 127.644,17.916 C127.267998,17.715999 126.968001,17.4640015 126.744,17.16 L126.744,21.744 L125.616,21.744 L125.616,5.904 L126.6,5.904 L126.696,7.896 C126.968001,7.31999712 127.327998,6.80400228 127.776,6.348 C128.224002,5.89199772 128.783997,5.664 129.456,5.664 C129.952002,5.664 130.399998,5.80799856 130.8,6.096 C131.200002,6.38400144 131.535999,6.7879974 131.808,7.308 C132.080001,7.8280026 132.287999,8.45199636 132.432,9.18 C132.576001,9.90800364 132.648,10.7119956 132.648,11.592 C132.648,13.8160111 132.304003,15.4759945 131.616,16.572 C130.927997,17.6680055 130.024006,18.216 128.904,18.216 Z M135.936,18 L134.808,18 L134.808,5.904 L135.936,5.904 L135.936,11.592 L139.992,5.904 L141.096,5.904 L137.112,11.52 L141.384,18 L140.136,18 L135.936,11.736 L135.936,18 Z M148.416,9.576 C148.416,9.2559984 148.424,8.96400132 148.44,8.7 C148.456,8.43599868 148.48,8.17600128 148.512,7.92 L148.44,7.92 C148.36,8.19200136 148.264001,8.45199876 148.152,8.7 C148.039999,8.94800124 147.920001,9.20799864 147.792,9.48 L143.856,18 L142.896,18 L142.896,5.904 L143.952,5.904 L143.952,14.304 C143.952,14.6240016 143.944,14.9199986 143.928,15.192 C143.912,15.4640014 143.888,15.7359986 143.856,16.008 L143.928,16.008 C144.008,15.7359986 144.103999,15.4680013 144.216,15.204 C144.328001,14.9399987 144.447999,14.6720014 144.576,14.4 L148.512,5.904 L149.496,5.904 L149.496,18 L148.416,18 L148.416,9.576 Z" id="Яндекс-Переговорки-Copy" fill="#000000"></path>
            </g>
        </g>
    </g>
</svg>

<svg width="150" height="22" xmlns="http://www.w3.org/2000/svg"><g fill="none" fill-rule="evenodd"><path d="M5.544 11.424L2.616 18H.48l3.216-7.032a4.573 4.573 0 0 1-1.824-1.692c-.464-.744-.696-1.756-.696-3.036 0-.896.132-1.684.396-2.364.264-.68.624-1.244 1.08-1.692a4.44 4.44 0 0 1 1.596-1.008A5.51 5.51 0 0 1 6.168.84h2.76V18H7.08v-6.576H5.544zM7.08 2.4h-.984c-.368 0-.728.068-1.08.204a2.472 2.472 0 0 0-.936.648c-.272.296-.492.688-.66 1.176-.168.488-.252 1.092-.252 1.812 0 .688.076 1.264.228 1.728.152.464.36.84.624 1.128.264.288.576.492.936.612.36.12.74.18 1.14.18h.984V2.4z" fill="#FF3029"/><path d="M27.456 20.376h-1.68V18h-5.184v2.376h-1.68v-3.912h.744c.272-.64.488-1.348.648-2.124.16-.776.284-1.576.372-2.4.088-.824.144-1.664.168-2.52.024-.856.036-1.684.036-2.484V5.904h5.616v10.56h.96v3.912zm8.136-3.192a4.57 4.57 0 0 1-1.32.72 4.926 4.926 0 0 1-1.656.264c-1.248 0-2.232-.484-2.952-1.452-.72-.968-1.08-2.388-1.08-4.26 0-.976.068-1.872.204-2.688.136-.816.352-1.524.648-2.124.296-.6.676-1.068 1.14-1.404.464-.336 1.016-.504 1.656-.504.496 0 .952.1 1.368.3.416.2.768.524 1.056.972.288.448.512 1.028.672 1.74.16.712.24 1.58.24 2.604v1.032h-5.04c0 1.376.188 2.416.564 3.12.376.704.94 1.056 1.692 1.056.528 0 .996-.092 1.404-.276.408-.184.732-.364.972-.54l.432 1.44zm-17.76-11.28V18h-1.848v-5.424H13.2V18h-1.872V5.904H13.2v5.136h2.784V5.904h1.848zm21.528 6.072V18h-1.872V5.904h1.872v5.592l2.904-5.592h1.896l-3 5.688L44.592 18h-2.04l-3.192-6.024zm9.624 6.192c-1.296 0-2.312-.516-3.048-1.548-.736-1.032-1.104-2.588-1.104-4.668 0-.944.092-1.8.276-2.568.184-.768.456-1.42.816-1.956.36-.536.808-.952 1.344-1.248.536-.296 1.156-.444 1.86-.444.544 0 .984.06 1.32.18.336.12.64.268.912.444l-.264 1.776a4.069 4.069 0 0 0-.9-.588 2.457 2.457 0 0 0-1.092-.252c-.672 0-1.224.376-1.656 1.128-.432.752-.648 1.896-.648 3.432 0 1.52.18 2.692.54 3.516.36.824.924 1.236 1.692 1.236.464 0 .864-.076 1.2-.228a3.5 3.5 0 0 0 .84-.516l.432 1.392c-.32.272-.68.492-1.08.66-.4.168-.88.252-1.44.252zM24.648 7.416H22.56v.216c0 .64-.012 1.34-.036 2.1-.024.76-.076 1.532-.156 2.316-.08.784-.192 1.556-.336 2.316a11.32 11.32 0 0 1-.6 2.1h3.216V7.416zm7.584-.144c-.576 0-.984.324-1.224.972-.24.648-.392 1.516-.456 2.604h3.096c0-.512-.024-.988-.072-1.428a5.73 5.73 0 0 0-.228-1.14c-.104-.32-.248-.568-.432-.744a.951.951 0 0 0-.684-.264zm31.344-5.448h-5.112V18h-1.2V.84h7.512V18h-1.2V1.824zm4.392 10.32c.032 1.664.264 2.932.696 3.804.432.872 1.088 1.308 1.968 1.308.4 0 .752-.064 1.056-.192.304-.128.56-.28.768-.456.24-.176.448-.392.624-.648l.36.912a2.876 2.876 0 0 1-.696.696c-.24.176-.536.332-.888.468s-.768.204-1.248.204c-1.28 0-2.224-.552-2.832-1.656-.608-1.104-.912-2.648-.912-4.632 0-.992.088-1.876.264-2.652.176-.776.42-1.436.732-1.98s.684-.956 1.116-1.236c.432-.28.904-.42 1.416-.42.528 0 1 .136 1.416.408.416.272.76.68 1.032 1.224.272.544.464 1.22.576 2.028.112.808.12 1.748.024 2.82h-5.472zM70.392 6.6c-.64 0-1.188.396-1.644 1.188-.456.792-.708 1.948-.756 3.468h4.392c.096-1.616-.06-2.796-.468-3.54C71.508 6.972 71 6.6 70.392 6.6zm8.544 10.728c.768 0 1.384-.46 1.848-1.38.464-.92.696-2.34.696-4.26 0-1.6-.2-2.84-.6-3.72-.4-.88-.952-1.32-1.656-1.32a1.6 1.6 0 0 0-.78.204c-.248.136-.48.316-.696.54a4.236 4.236 0 0 0-.588.78 6.605 6.605 0 0 0-.456.924v6.768c.24.496.536.864.888 1.104.352.24.8.36 1.344.36zm-.072.888c-.464 0-.884-.1-1.26-.3a2.627 2.627 0 0 1-.9-.756v4.584h-1.128V5.904h.984l.096 1.992a5.615 5.615 0 0 1 1.08-1.548c.448-.456 1.008-.684 1.68-.684.496 0 .944.144 1.344.432.4.288.736.692 1.008 1.212s.48 1.144.624 1.872c.144.728.216 1.532.216 2.412 0 2.224-.344 3.884-1.032 4.98-.688 1.096-1.592 1.644-2.712 1.644zm6.384-6.072c.032 1.664.264 2.932.696 3.804.432.872 1.088 1.308 1.968 1.308.4 0 .752-.064 1.056-.192.304-.128.56-.28.768-.456.24-.176.448-.392.624-.648l.36.912a2.876 2.876 0 0 1-.696.696c-.24.176-.536.332-.888.468s-.768.204-1.248.204c-1.28 0-2.224-.552-2.832-1.656-.608-1.104-.912-2.648-.912-4.632 0-.992.088-1.876.264-2.652.176-.776.42-1.436.732-1.98s.684-.956 1.116-1.236c.432-.28.904-.42 1.416-.42.528 0 1 .136 1.416.408.416.272.76.68 1.032 1.224.272.544.464 1.22.576 2.028.112.808.12 1.748.024 2.82h-5.472zM87.672 6.6c-.64 0-1.188.396-1.644 1.188-.456.792-.708 1.948-.756 3.468h4.392c.096-1.616-.06-2.796-.468-3.54-.408-.744-.916-1.116-1.524-1.116zm6.288.24V18h-1.104V5.904h5.112v.936H93.96zm8.664 11.4a2.832 2.832 0 0 1-1.464-.396c-.448-.264-.836-.652-1.164-1.164-.328-.512-.588-1.156-.78-1.932-.192-.776-.288-1.684-.288-2.724 0-1.008.096-1.908.288-2.7.192-.792.452-1.456.78-1.992s.716-.948 1.164-1.236a2.655 2.655 0 0 1 1.464-.432 2.9 2.9 0 0 1 1.464.384c.448.256.836.644 1.164 1.164.328.52.588 1.168.78 1.944.192.776.288 1.684.288 2.724 0 1.008-.096 1.904-.288 2.688-.192.784-.452 1.448-.78 1.992s-.716.96-1.164 1.248a2.655 2.655 0 0 1-1.464.432zm0-.912c.704 0 1.308-.44 1.812-1.32.504-.88.756-2.232.756-4.056 0-.944-.068-1.756-.204-2.436-.136-.68-.32-1.236-.552-1.668-.232-.432-.504-.748-.816-.948-.312-.2-.644-.3-.996-.3-.704 0-1.308.432-1.812 1.296-.504.864-.756 2.216-.756 4.056 0 .944.068 1.756.204 2.436.136.68.32 1.236.552 1.668.232.432.504.752.816.96.312.208.644.312.996.312zm5.76.672V5.904h2.544c1.072 0 1.888.248 2.448.744s.84 1.224.84 2.184c0 .608-.136 1.152-.408 1.632-.272.48-.704.856-1.296 1.128.784.224 1.356.584 1.716 1.08.36.496.54 1.112.54 1.848 0 1.2-.344 2.08-1.032 2.64-.688.56-1.608.84-2.76.84h-2.592zm1.104-11.208v4.488h1.392c.672 0 1.216-.188 1.632-.564.416-.376.624-.988.624-1.836 0-.768-.2-1.308-.6-1.62-.4-.312-.952-.468-1.656-.468h-1.392zm0 5.328v5.016h1.488c.784 0 1.424-.188 1.92-.564.496-.376.744-1.036.744-1.98 0-.88-.228-1.512-.684-1.896-.456-.384-1.124-.576-2.004-.576h-1.464zm10.368 6.12a2.832 2.832 0 0 1-1.464-.396c-.448-.264-.836-.652-1.164-1.164-.328-.512-.588-1.156-.78-1.932-.192-.776-.288-1.684-.288-2.724 0-1.008.096-1.908.288-2.7.192-.792.452-1.456.78-1.992s.716-.948 1.164-1.236a2.655 2.655 0 0 1 1.464-.432 2.9 2.9 0 0 1 1.464.384c.448.256.836.644 1.164 1.164.328.52.588 1.168.78 1.944.192.776.288 1.684.288 2.724 0 1.008-.096 1.904-.288 2.688-.192.784-.452 1.448-.78 1.992s-.716.96-1.164 1.248a2.655 2.655 0 0 1-1.464.432zm0-.912c.704 0 1.308-.44 1.812-1.32.504-.88.756-2.232.756-4.056 0-.944-.068-1.756-.204-2.436-.136-.68-.32-1.236-.552-1.668-.232-.432-.504-.748-.816-.948-.312-.2-.644-.3-.996-.3-.704 0-1.308.432-1.812 1.296-.504.864-.756 2.216-.756 4.056 0 .944.068 1.756.204 2.436.136.68.32 1.236.552 1.668.232.432.504.752.816.96.312.208.644.312.996.312zm9.12 0c.768 0 1.384-.46 1.848-1.38.464-.92.696-2.34.696-4.26 0-1.6-.2-2.84-.6-3.72-.4-.88-.952-1.32-1.656-1.32a1.6 1.6 0 0 0-.78.204c-.248.136-.48.316-.696.54a4.236 4.236 0 0 0-.588.78 6.605 6.605 0 0 0-.456.924v6.768c.24.496.536.864.888 1.104.352.24.8.36 1.344.36zm-.072.888c-.464 0-.884-.1-1.26-.3a2.627 2.627 0 0 1-.9-.756v4.584h-1.128V5.904h.984l.096 1.992a5.615 5.615 0 0 1 1.08-1.548c.448-.456 1.008-.684 1.68-.684.496 0 .944.144 1.344.432.4.288.736.692 1.008 1.212s.48 1.144.624 1.872c.144.728.216 1.532.216 2.412 0 2.224-.344 3.884-1.032 4.98-.688 1.096-1.592 1.644-2.712 1.644zm7.032-.216h-1.128V5.904h1.128v5.688l4.056-5.688h1.104l-3.984 5.616 4.272 6.48h-1.248l-4.2-6.264V18zm12.48-8.424c0-.32.008-.612.024-.876s.04-.524.072-.78h-.072c-.08.272-.176.532-.288.78-.112.248-.232.508-.36.78L143.856 18h-.96V5.904h1.056v8.4a14.037 14.037 0 0 1-.096 1.704h.072c.08-.272.176-.54.288-.804.112-.264.232-.532.36-.804l3.936-8.496h.984V18h-1.08V9.576z" fill="#000"/></g></svg>
